;FLAVOR:Marlin
;TIME:941
;Filament used: 0.403724m
;Layer height: 0.2
;Generated with Cura_SteamEngine 3.5.1
M140 S60
M105
M190 S60
M104 S205
M105
M109 S205
M82 ;absolute extrusion mode
G28 ;Home
G1 Z15.0 F6000 ;Move the platform down 15mm
;Prime the extruder
G92 E0
G1 F200 E3
G92 E0
G92 E0
G1 F3900 E-5
;LAYER_COUNT:2
;LAYER:0
M107
M204 S1000
M205 X10 Y10
G0 F3600 X47.167 Y69.89 Z0.2
M204 S500
M205 X8 Y8
;TYPE:SKIRT
G1 F3900 E0.0423
G1 F1500 X47.593 Y69.638 E0.05905
G1 X49.196 Y68.737 E0.12127
G1 X50.38 Y68.159 E0.16585
G1 X51.522 Y67.681 E0.20774
G1 X52.573 Y67.301 E0.24556
G1 X53.776 Y66.931 E0.28815
G1 X54.699 Y66.689 E0.32044
G1 X55.259 Y66.581 E0.33973
G1 X57.462 Y66.215 E0.4153
G1 X58.409 Y66.098 E0.44759
G1 X59.078 Y66.064 E0.47025
G1 X60.709 Y66.028 E0.52546
G1 X61.884 Y66.062 E0.56523
G1 X68.688 Y66.615 E0.79622
G1 X73.697 Y66.735 E0.96577
G1 X78.764 Y66.571 E1.13731
G1 X85.151 Y66.065 E1.35411
G1 X86.105 Y66.029 E1.38641
G1 X86.728 Y66.049 E1.40751
G1 X87.889 Y66.118 E1.44686
G1 X89.076 Y66.251 E1.48728
G1 X90.199 Y66.437 E1.5258
G1 X91.331 Y66.685 E1.56501
G1 X92.418 Y66.981 E1.60313
G1 X93.328 Y67.27 E1.63544
G1 X94.005 Y67.541 E1.66011
G1 X95.962 Y68.4 E1.73243
G1 X96.819 Y68.82 E1.76473
G1 X97.293 Y69.092 E1.78322
G1 X98.165 Y69.621 E1.81773
G1 X99.054 Y70.219 E1.85398
G1 X100.165 Y71.045 E1.90083
G1 X101.027 Y71.754 E1.9386
G1 X101.908 Y72.554 E1.97886
G1 X102.587 Y73.225 E2.01117
G1 X103.007 Y73.702 E2.03267
G1 X104.286 Y75.239 E2.10033
G1 X104.865 Y75.998 E2.13263
G1 X105.415 Y76.864 E2.16735
G1 X106.201 Y78.236 E2.22085
G1 X106.64 Y79.084 E2.25316
G1 X106.842 Y79.543 E2.27013
G1 X108.457 Y83.446 E2.41306
G1 X110.614 Y88.028 E2.58443
G1 X113.039 Y92.505 E2.75671
G1 X114.277 Y94.575 E2.83833
G1 X115.91 Y97.106 E2.94025
G1 X116.178 Y97.542 E2.95757
G1 X117.145 Y99.199 E3.02249
G1 X117.591 Y100.043 E3.05479
G1 X117.994 Y100.997 E3.08983
G1 X118.506 Y102.384 E3.13986
G1 X118.798 Y103.293 E3.17217
G1 X118.97 Y104.002 E3.19685
G1 X119.112 Y104.682 E3.22036
G1 X119.268 Y105.624 E3.25267
G1 X119.331 Y106.299 E3.27561
G1 X119.473 Y108.566 E3.35247
G1 X119.492 Y109.521 E3.38479
G1 X119.462 Y110.143 E3.40586
G1 X119.354 Y111.564 E3.45408
G1 X119.172 Y112.905 E3.49988
G1 X118.854 Y114.518 E3.55551
G1 X118.63 Y115.446 E3.58781
G1 X118.459 Y115.991 E3.60714
G1 X118.021 Y117.276 E3.65308
G1 X117.676 Y118.166 E3.68538
G1 X117.436 Y118.679 E3.70454
G1 X116.708 Y120.141 E3.7598
G1 X116.247 Y120.978 E3.79214
G1 X115.841 Y121.599 E3.81724
G1 X114.706 Y123.22 E3.8842
G1 X114.048 Y124.071 E3.9206
G1 X111.819 Y126.689 E4.03695
G1 X108.721 Y130.69 E4.20818
G1 X105.825 Y134.9 E4.38108
G1 X104.566 Y136.907 E4.46125
G1 X101.6 Y142.041 E4.66188
G1 X100.989 Y142.987 E4.69999
G1 X100.253 Y144.012 E4.74269
G1 X99.585 Y144.855 E4.77908
G1 X98.768 Y145.792 E4.82115
G1 X98.041 Y146.553 E4.85676
G1 X97.126 Y147.425 E4.89953
G1 X96.352 Y148.098 E4.93424
G1 X95.355 Y148.89 E4.97732
G1 X94.535 Y149.484 E5.01158
G1 X93.48 Y150.179 E5.05433
G1 X92.378 Y150.82 E5.09747
G1 X90.725 Y151.661 E5.16023
G1 X89.669 Y152.132 E5.19935
G1 X88.741 Y152.491 E5.23302
G1 X87.427 Y152.91 E5.27969
G1 X85.544 Y153.387 E5.34542
G1 X84.61 Y153.582 E5.37771
G1 X84.09 Y153.656 E5.39548
G1 X82.583 Y153.835 E5.44683
G1 X81.301 Y153.915 E5.4903
G1 X80.037 Y153.922 E5.53307
G1 X78.929 Y153.874 E5.57059
G1 X74.408 Y153.458 E5.72422
G1 X69.35 Y153.218 E5.89556
G1 X64.314 Y153.264 E6.06598
G1 X59.211 Y153.6 E6.23903
G1 X56.902 Y153.827 E6.31753
G1 X55.958 Y153.88 E6.34953
G1 X54.678 Y153.899 E6.39284
G1 X53.724 Y153.873 E6.42514
G1 X53.162 Y153.82 E6.44424
G1 X51.322 Y153.601 E6.50694
G1 X50.379 Y153.449 E6.53926
G1 X49.536 Y153.242 E6.56863
G1 X47.993 Y152.801 E6.62294
G1 X47.087 Y152.501 E6.65523
G1 X46.294 Y152.165 E6.68437
G1 X44.343 Y151.252 E6.75726
G1 X43.496 Y150.812 E6.78956
G1 X43.06 Y150.548 E6.8068
G1 X42.083 Y149.927 E6.84598
G1 X40.931 Y149.089 E6.89418
G1 X39.396 Y147.819 E6.96159
G1 X38.686 Y147.181 E6.99389
G1 X37.875 Y146.297 E7.03449
G1 X37.133 Y145.399 E7.0739
G1 X36.556 Y144.639 E7.10619
G1 X36.278 Y144.219 E7.12324
G1 X35.706 Y143.312 E7.15952
G1 X35.231 Y142.484 E7.19182
G1 X34.932 Y141.862 E7.21517
G1 X31.71 Y134.615 E7.48354
G1 X29.436 Y130.137 E7.65348
G1 X26.885 Y125.75 E7.8252
G1 X24.449 Y121.974 E7.97725
G1 X23.966 Y121.15 E8.00957
G1 X23.567 Y120.322 E8.04067
G1 X22.823 Y118.603 E8.10406
G1 X22.481 Y117.712 E8.13635
G1 X22.157 Y116.549 E8.1772
G1 X21.824 Y115.051 E8.22913
G1 X21.656 Y114.111 E8.26144
G1 X21.566 Y113.137 E8.29454
G1 X21.469 Y111.165 E8.36135
G1 X21.462 Y110.21 E8.39366
G1 X21.515 Y109.437 E8.41988
G1 X21.668 Y107.951 E8.47043
G1 X21.841 Y106.827 E8.50891
G1 X22.045 Y105.833 E8.54325
G1 X22.357 Y104.642 E8.58491
G1 X22.933 Y102.847 E8.6487
G1 X23.437 Y101.553 E8.69569
G1 X23.928 Y100.489 E8.73534
G1 X24.467 Y99.462 E8.77458
G1 X25.188 Y98.243 E8.82251
G1 X25.708 Y97.443 E8.85479
G1 X26.269 Y96.717 E8.88584
G1 X28.392 Y94.188 E8.99757
G1 X31.602 Y90.145 E9.17225
G1 X34.492 Y86.05 E9.34185
G1 X37.209 Y81.697 E9.51548
G1 X39.656 Y77.465 E9.6809
G1 X40.168 Y76.659 E9.71321
G1 X40.734 Y75.913 E9.7449
G1 X42.22 Y74.113 E9.82388
G1 X42.858 Y73.403 E9.85618
G1 X43.304 Y72.97 E9.87721
G1 X44.357 Y72.004 E9.92557
G1 X45.262 Y71.257 E9.96527
G1 X46.377 Y70.428 E10.01229
G1 X47.167 Y69.89 E10.04463
M204 S1000
M205 X10 Y10
G0 F3600 X47.789 Y69.987
M204 S500
M205 X8 Y8
G1 F1500 X49.392 Y69.086 E10.10685
G1 X50.535 Y68.528 E10.14989
G1 X51.677 Y68.05 E10.19178
G1 X52.69 Y67.683 E10.22824
G1 X53.893 Y67.313 E10.27083
G1 X54.801 Y67.076 E10.30258
G1 X55.324 Y66.976 E10.3206
G1 X57.527 Y66.61 E10.39617
G1 X58.458 Y66.496 E10.42791
G1 X59.087 Y66.464 E10.44922
G1 X60.718 Y66.428 E10.50442
G1 X61.852 Y66.461 E10.54281
G1 X68.663 Y67.015 E10.77404
G1 X73.701 Y67.136 E10.94456
G1 X78.767 Y66.972 E11.11607
G1 X85.183 Y66.463 E11.33386
G1 X86.12 Y66.429 E11.36559
G1 X86.705 Y66.448 E11.38539
G1 X87.866 Y66.517 E11.42475
G1 X89.01 Y66.646 E11.4637
G1 X90.133 Y66.832 E11.50222
G1 X91.226 Y67.07 E11.54007
G1 X92.313 Y67.366 E11.57819
G1 X93.207 Y67.651 E11.60994
G1 X93.844 Y67.908 E11.63319
G1 X95.801 Y68.767 E11.7055
G1 X96.643 Y69.18 E11.73724
G1 X97.085 Y69.434 E11.75449
G1 X97.957 Y69.963 E11.789
G1 X98.815 Y70.54 E11.82399
G1 X99.926 Y71.366 E11.87083
G1 X100.758 Y72.05 E11.90728
G1 X101.639 Y72.85 E11.94755
G1 X102.306 Y73.51 E11.9793
G1 X102.699 Y73.958 E11.99946
G1 X103.978 Y75.495 E12.06712
G1 X104.547 Y76.241 E12.09887
G1 X105.068 Y77.063 E12.1318
G1 X105.854 Y78.435 E12.18531
G1 X106.473 Y79.696 E12.23284
G1 X108.096 Y83.616 E12.3764
G1 X110.257 Y88.21 E12.54819
G1 X112.697 Y92.713 E12.72149
G1 X113.929 Y94.775 E12.80277
G1 X115.574 Y97.323 E12.9054
G1 X115.833 Y97.744 E12.92212
G1 X116.8 Y99.401 E12.98704
G1 X117.237 Y100.23 E13.01875
G1 X117.618 Y101.136 E13.05201
G1 X118.13 Y102.523 E13.10204
G1 X118.417 Y103.416 E13.13378
G1 X118.579 Y104.083 E13.157
G1 X118.721 Y104.763 E13.18051
G1 X118.873 Y105.689 E13.21226
G1 X118.931 Y106.324 E13.23384
G1 X119.073 Y108.591 E13.3107
G1 X119.092 Y109.529 E13.34245
G1 X119.063 Y110.113 E13.36223
G1 X118.955 Y111.534 E13.41045
G1 X118.779 Y112.828 E13.45464
G1 X118.461 Y114.441 E13.51027
G1 X118.241 Y115.352 E13.54199
G1 X118.081 Y115.862 E13.56007
G1 X117.643 Y117.147 E13.60601
G1 X117.303 Y118.021 E13.63774
G1 X117.078 Y118.501 E13.65568
G1 X116.35 Y119.963 E13.71095
G1 X115.896 Y120.784 E13.74269
G1 X115.514 Y121.369 E13.76633
G1 X114.379 Y122.99 E13.83329
G1 X113.744 Y123.812 E13.86844
G1 X111.503 Y126.445 E13.98544
G1 X108.39 Y130.464 E14.15746
G1 X105.499 Y134.666 E14.33004
G1 X104.226 Y136.697 E14.41115
G1 X101.254 Y141.841 E14.61218
G1 X100.664 Y142.754 E14.64896
G1 X99.928 Y143.779 E14.69166
G1 X99.284 Y144.592 E14.72675
G1 X98.467 Y145.529 E14.76882
G1 X97.765 Y146.263 E14.80319
G1 X96.85 Y147.135 E14.84596
G1 X96.103 Y147.785 E14.87946
G1 X95.106 Y148.577 E14.92255
G1 X94.315 Y149.15 E14.9556
G1 X93.26 Y149.845 E14.99835
G1 X92.197 Y150.463 E15.03995
G1 X90.544 Y151.304 E15.10271
G1 X89.525 Y151.759 E15.14047
G1 X88.597 Y152.118 E15.17414
G1 X87.329 Y152.522 E15.21917
G1 X85.446 Y152.999 E15.2849
G1 X84.528 Y153.191 E15.31664
G1 X84.042 Y153.259 E15.33324
G1 X82.535 Y153.438 E15.38459
G1 X81.299 Y153.515 E15.4265
G1 X80.035 Y153.522 E15.46927
G1 X78.965 Y153.476 E15.50551
G1 X74.44 Y153.059 E15.65928
G1 X69.348 Y152.818 E15.83177
G1 X64.301 Y152.864 E16.00256
G1 X59.148 Y153.204 E16.1773
G1 X56.863 Y153.428 E16.25499
G1 X55.952 Y153.48 E16.28587
G1 X54.672 Y153.499 E16.32918
G1 X53.735 Y153.473 E16.3609
G1 X53.209 Y153.423 E16.37878
G1 X51.369 Y153.204 E16.44148
G1 X50.443 Y153.053 E16.47323
G1 X49.646 Y152.858 E16.50099
G1 X48.103 Y152.417 E16.5553
G1 X47.213 Y152.121 E16.58703
G1 X46.464 Y151.803 E16.61457
G1 X44.513 Y150.89 E16.68746
G1 X43.681 Y150.457 E16.71919
G1 X43.274 Y150.21 E16.7353
G1 X42.297 Y149.589 E16.77448
G1 X41.186 Y148.781 E16.82096
G1 X39.651 Y147.511 E16.88837
G1 X38.954 Y146.883 E16.92012
G1 X38.183 Y146.043 E16.9587
G1 X37.441 Y145.145 E16.99812
G1 X36.617 Y144.006 E17.04569
G1 X36.045 Y143.099 E17.08197
G1 X35.579 Y142.285 E17.11371
G1 X35.298 Y141.7 E17.13567
G1 X32.079 Y134.459 E17.40381
G1 X29.781 Y129.934 E17.57554
G1 X27.228 Y125.544 E17.74738
G1 X24.785 Y121.757 E17.89987
G1 X24.311 Y120.948 E17.9316
G1 X23.934 Y120.163 E17.96107
G1 X23.19 Y118.444 E18.02445
G1 X22.854 Y117.568 E18.0562
G1 X22.547 Y116.462 E18.09504
G1 X22.214 Y114.964 E18.14696
G1 X22.05 Y114.041 E18.17868
G1 X21.965 Y113.117 E18.21008
G1 X21.868 Y111.145 E18.27689
G1 X21.862 Y110.208 E18.3086
G1 X21.913 Y109.478 E18.33336
G1 X22.066 Y107.992 E18.38391
G1 X22.233 Y106.908 E18.42102
G1 X22.437 Y105.914 E18.45536
G1 X22.738 Y104.764 E18.49558
G1 X23.314 Y102.969 E18.55937
G1 X23.8 Y101.721 E18.60469
G1 X24.291 Y100.657 E18.64434
G1 X24.811 Y99.666 E18.68221
G1 X25.532 Y98.447 E18.73013
G1 X26.044 Y97.661 E18.76187
G1 X26.575 Y96.974 E18.79126
G1 X28.696 Y94.448 E18.90286
G1 X31.918 Y90.39 E19.0782
G1 X34.834 Y86.259 E19.2493
G1 X37.549 Y81.907 E19.42287
G1 X40.002 Y77.665 E19.58868
G1 X40.506 Y76.874 E19.62041
G1 X41.042 Y76.168 E19.65041
G1 X42.528 Y74.368 E19.72939
G1 X43.156 Y73.671 E19.76114
G1 X43.575 Y73.265 E19.78088
G1 X44.628 Y72.299 E19.82923
G1 X45.501 Y71.578 E19.86754
G1 X46.616 Y70.749 E19.91456
G1 X47.789 Y69.987 E19.96189
M204 S1000
M205 X10 Y10
G0 F3600 X47.985 Y70.336
M204 S500
M205 X8 Y8
G1 F1500 X49.588 Y69.435 E20.02411
G1 X50.689 Y68.897 E20.06558
G1 X51.831 Y68.419 E20.10747
G1 X52.808 Y68.065 E20.14263
G1 X54.011 Y67.695 E20.18522
G1 X54.902 Y67.463 E20.21638
G1 X55.39 Y67.37 E20.23319
G1 X57.593 Y67.004 E20.30875
G1 X58.507 Y66.893 E20.33991
G1 X59.096 Y66.864 E20.35986
G1 X60.727 Y66.828 E20.41506
G1 X61.82 Y66.86 E20.45206
G1 X68.64 Y67.414 E20.6836
G1 X73.704 Y67.536 E20.855
G1 X78.789 Y67.371 E21.02716
G1 X85.214 Y66.862 E21.24525
G1 X86.134 Y66.829 E21.2764
G1 X86.681 Y66.848 E21.29492
G1 X87.842 Y66.917 E21.33427
G1 X88.945 Y67.04 E21.37183
G1 X90.068 Y67.226 E21.41034
G1 X91.121 Y67.456 E21.44682
G1 X92.208 Y67.752 E21.48494
G1 X93.085 Y68.033 E21.5161
G1 X93.683 Y68.274 E21.53791
G1 X95.64 Y69.133 E21.61023
G1 X96.467 Y69.539 E21.64141
G1 X96.878 Y69.776 E21.65746
G1 X97.75 Y70.305 E21.69197
G1 X98.576 Y70.861 E21.72566
G1 X99.687 Y71.687 E21.77251
G1 X100.489 Y72.347 E21.80766
G1 X101.37 Y73.147 E21.84792
G1 X102.024 Y73.795 E21.87908
G1 X102.392 Y74.214 E21.89795
G1 X103.671 Y75.751 E21.96561
G1 X104.229 Y76.483 E21.99675
G1 X104.721 Y77.262 E22.02793
G1 X105.507 Y78.634 E22.08143
G1 X106.103 Y79.849 E22.12723
G1 X107.729 Y83.778 E22.27111
G1 X109.901 Y88.393 E22.4437
G1 X112.344 Y92.903 E22.61726
G1 X113.588 Y94.983 E22.69927
G1 X115.238 Y97.54 E22.80224
G1 X115.487 Y97.945 E22.81833
G1 X116.454 Y99.602 E22.88325
G1 X116.883 Y100.417 E22.91441
G1 X117.243 Y101.274 E22.94587
G1 X117.755 Y102.661 E22.9959
G1 X118.036 Y103.538 E23.02706
G1 X118.187 Y104.165 E23.04888
G1 X118.329 Y104.845 E23.07239
G1 X118.478 Y105.754 E23.10356
G1 X118.532 Y106.349 E23.12377
G1 X118.674 Y108.616 E23.20063
G1 X118.692 Y109.537 E23.2318
G1 X118.665 Y110.082 E23.25027
G1 X118.557 Y111.503 E23.29849
G1 X118.387 Y112.75 E23.34108
G1 X118.069 Y114.363 E23.39671
G1 X117.852 Y115.258 E23.42787
G1 X117.702 Y115.733 E23.44472
G1 X117.264 Y117.018 E23.49066
G1 X116.93 Y117.876 E23.52182
G1 X116.72 Y118.323 E23.53853
G1 X115.992 Y119.785 E23.59379
G1 X115.546 Y120.59 E23.62493
G1 X115.186 Y121.14 E23.64718
G1 X114.051 Y122.761 E23.71414
G1 X113.439 Y123.552 E23.74798
G1 X111.204 Y126.177 E23.86464
G1 X108.069 Y130.226 E24.03791
G1 X105.156 Y134.459 E24.21179
G1 X103.881 Y136.494 E24.29305
G1 X100.907 Y141.641 E24.49419
G1 X100.339 Y142.521 E24.52963
G1 X99.603 Y143.546 E24.57233
G1 X98.982 Y144.329 E24.60615
G1 X98.165 Y145.266 E24.64821
G1 X97.489 Y145.973 E24.68131
G1 X96.574 Y146.845 E24.72408
G1 X95.854 Y147.472 E24.75639
G1 X94.857 Y148.264 E24.79947
G1 X94.095 Y148.816 E24.83131
G1 X93.04 Y149.511 E24.87406
G1 X92.016 Y150.107 E24.91415
G1 X90.363 Y150.948 E24.97691
G1 X89.38 Y151.386 E25.01333
G1 X88.452 Y151.745 E25.04699
G1 X87.231 Y152.134 E25.09036
G1 X85.348 Y152.611 E25.15609
G1 X83.995 Y152.862 E25.20265
G1 X82.488 Y153.041 E25.254
G1 X81.297 Y153.115 E25.29438
G1 X80.033 Y153.122 E25.33715
G1 X79.002 Y153.077 E25.37207
G1 X74.474 Y152.66 E25.52594
G1 X69.363 Y152.418 E25.69907
G1 X64.289 Y152.464 E25.87077
G1 X59.113 Y152.805 E26.0463
G1 X56.824 Y153.03 E26.12413
G1 X55.946 Y153.08 E26.15388
G1 X54.666 Y153.099 E26.1972
G1 X53.746 Y153.073 E26.22834
G1 X53.256 Y153.026 E26.245
G1 X51.416 Y152.807 E26.3077
G1 X50.508 Y152.658 E26.33884
G1 X49.756 Y152.473 E26.36504
G1 X48.213 Y152.032 E26.41934
G1 X47.34 Y151.741 E26.45048
G1 X46.633 Y151.441 E26.47647
G1 X44.682 Y150.528 E26.54936
G1 X43.489 Y149.873 E26.59541
G1 X42.512 Y149.252 E26.63458
G1 X41.441 Y148.473 E26.6794
G1 X39.906 Y147.203 E26.74681
G1 X39.223 Y146.586 E26.77796
G1 X38.492 Y145.788 E26.81457
G1 X37.75 Y144.89 E26.85399
G1 X36.955 Y143.792 E26.89986
G1 X36.383 Y142.885 E26.93615
G1 X35.926 Y142.086 E26.96729
G1 X35.663 Y141.537 E26.98789
G1 X32.436 Y134.278 E27.2567
G1 X30.133 Y129.744 E27.42877
G1 X27.571 Y125.338 E27.60124
G1 X25.121 Y121.54 E27.75417
G1 X24.656 Y120.745 E27.78534
G1 X24.301 Y120.004 E27.81314
G1 X23.557 Y118.285 E27.87652
G1 X23.228 Y117.425 E27.90768
G1 X22.938 Y116.375 E27.94454
G1 X22.605 Y114.877 E27.99646
G1 X22.444 Y113.971 E28.0276
G1 X22.365 Y113.098 E28.05726
G1 X22.268 Y111.126 E28.12407
G1 X22.263 Y110.205 E28.15523
G1 X22.311 Y109.519 E28.1785
G1 X22.464 Y108.033 E28.22905
G1 X22.624 Y106.988 E28.26483
G1 X22.828 Y105.994 E28.29916
G1 X23.119 Y104.886 E28.33792
G1 X23.695 Y103.091 E28.40171
G1 X24.163 Y101.889 E28.44536
G1 X24.654 Y100.825 E28.48501
G1 X25.155 Y99.87 E28.5215
G1 X25.876 Y98.651 E28.56943
G1 X26.379 Y97.879 E28.60061
G1 X26.882 Y97.231 E28.62836
G1 X28.996 Y94.713 E28.73961
G1 X32.242 Y90.624 E28.91627
G1 X35.156 Y86.496 E29.08725
G1 X37.91 Y82.082 E29.2633
G1 X40.349 Y77.865 E29.42814
G1 X40.844 Y77.089 E29.45929
G1 X41.351 Y76.423 E29.48761
G1 X42.837 Y74.623 E29.56659
G1 X43.453 Y73.939 E29.59774
G1 X43.845 Y73.56 E29.61619
G1 X44.898 Y72.594 E29.66454
G1 X45.739 Y71.899 E29.70146
G1 X46.854 Y71.07 E29.74847
G1 X47.985 Y70.336 E29.7941
M204 S1000
M205 X10 Y10
G0 F3600 X48.181 Y70.684
M204 S500
M205 X8 Y8
G1 F1500 X49.784 Y69.783 E29.85632
G1 X50.844 Y69.266 E29.89623
G1 X51.986 Y68.788 E29.93812
G1 X52.925 Y68.448 E29.97191
G1 X54.128 Y68.078 E30.0145
G1 X55.003 Y67.851 E30.04509
G1 X55.455 Y67.765 E30.06066
G1 X57.658 Y67.399 E30.13622
G1 X58.555 Y67.29 E30.1668
G1 X59.105 Y67.263 E30.18543
G1 X60.736 Y67.227 E30.24063
G1 X61.787 Y67.259 E30.27621
G1 X68.614 Y67.814 E30.50799
G1 X73.69 Y67.936 E30.6798
G1 X78.834 Y67.769 E30.85395
G1 X85.246 Y67.261 E31.0716
G1 X86.148 Y67.229 E31.10214
G1 X86.657 Y67.247 E31.11937
G1 X87.818 Y67.316 E31.15873
G1 X88.88 Y67.435 E31.19489
G1 X90.003 Y67.621 E31.2334
G1 X91.016 Y67.842 E31.26849
G1 X92.103 Y68.138 E31.30661
G1 X92.963 Y68.414 E31.33717
G1 X93.523 Y68.64 E31.3576
