;FLAVOR:Marlin
;TIME:5589
;Filament used: 4.78382m
;Layer height: 0.2
;Generated with Cura_SteamEngine 3.5.1
M140 S60
M105
M190 S60
M104 S200
M105
M109 S200
M82 ;absolute extrusion mode
G28 ;Home
G1 Z15.0 F6000 ;Move the platform down 15mm
;Prime the extruder
G92 E0
G1 F200 E3
G92 E0
G92 E0
G1 F2400 E-5
;LAYER_COUNT:33
;LAYER:0
M107
M204 S5000
M205 X30 Y30
G0 F3600 X164.367 Y121.039 Z0.2
M204 S500
M205 X20 Y20
;TYPE:SKIRT
G1 F2400 E0
G1 F1800 X164.845 Y120.399 E0.02657
G1 X165.778 Y119.3 E0.07452
G1 X166.108 Y118.94 E0.09076
G1 X168.04 Y116.987 E0.18213
G1 X171.661 Y113.056 E0.35989
G1 X175.024 Y108.965 E0.53603
G1 X178.152 Y104.685 E0.71235
G1 X181.054 Y100.203 E0.88994
G1 X184.755 Y93.922 E1.13242
G1 X186.872 Y90.167 E1.27579
G1 X187.051 Y89.868 E1.28738
G1 X189.62 Y85.841 E1.44625
G1 X190.012 Y85.293 E1.46866
G1 X190.374 Y84.839 E1.48798
G1 X190.85 Y84.306 E1.51175
G1 X191.383 Y83.829 E1.53554
G1 X191.966 Y83.414 E1.55934
G1 X192.428 Y83.149 E1.57705
G1 X194.049 Y82.307 E1.63781
G1 X198.475 Y79.991 E1.80395
G1 X199.126 Y79.696 E1.82772
G1 X199.748 Y79.49 E1.84952
G1 X200.36 Y79.322 E1.87062
G1 X201.096 Y79.166 E1.89565
G1 X206.228 Y78.389 E2.06828
G1 X206.899 Y78.323 E2.09071
G1 X208.278 Y78.261 E2.13662
G1 X209.239 Y78.291 E2.1686
G1 X215.066 Y78.908 E2.36349
G1 X220.366 Y79.176 E2.53999
G1 X225.668 Y79.143 E2.71634
G1 X230.928 Y78.812 E2.89164
G1 X237.956 Y77.932 E3.12721
G1 X238.669 Y77.883 E3.15098
G1 X239.698 Y77.952 E3.18529
G1 X246.659 Y78.993 E3.41938
G1 X247.359 Y79.139 E3.44317
G1 X248.07 Y79.373 E3.46806
G1 X248.683 Y79.616 E3.49
G1 X249.188 Y79.842 E3.5084
G1 X254.307 Y82.402 E3.69876
G1 X254.93 Y82.759 E3.72264
G1 X255.398 Y83.063 E3.7412
G1 X255.975 Y83.485 E3.76498
G1 X256.451 Y83.918 E3.78638
G1 X257.115 Y84.586 E3.81771
G1 X257.59 Y85.121 E3.8415
G1 X257.889 Y85.53 E3.85835
G1 X264.684 Y95.65 E4.26378
G1 X264.942 Y96.067 E4.28009
G1 X267.633 Y100.825 E4.4619
G1 X270.497 Y105.284 E4.63816
G1 X273.603 Y109.567 E4.81413
G1 X276.93 Y113.649 E4.98928
G1 X281.503 Y118.6 E5.21345
G1 X281.774 Y118.914 E5.22724
G1 X283.343 Y120.851 E5.31015
G1 X283.944 Y121.734 E5.34568
G1 X284.718 Y123.106 E5.39807
G1 X285.048 Y123.78 E5.42303
G1 X285.423 Y124.676 E5.45534
G1 X285.733 Y125.616 E5.48826
G1 X286.117 Y127.175 E5.54166
G1 X286.249 Y127.878 E5.56545
G1 X286.302 Y128.592 E5.58927
G1 X286.245 Y129.568 E5.62178
G1 X285.926 Y131.916 E5.7006
G1 X285.771 Y132.693 E5.72695
G1 X285.527 Y133.614 E5.75864
G1 X285.305 Y134.294 E5.78243
G1 X284.938 Y135.078 E5.81122
G1 X284.371 Y136.101 E5.85012
G1 X283.99 Y136.706 E5.8739
G1 X283.354 Y137.467 E5.90689
G1 X282.953 Y137.878 E5.92599
G1 X282.426 Y138.362 E5.94979
G1 X281.665 Y138.897 E5.98073
G1 X280.505 Y139.593 E6.02572
G1 X280.08 Y139.826 E6.04184
G1 X278.476 Y140.63 E6.10152
G1 X277.741 Y140.943 E6.12809
G1 X276.714 Y141.306 E6.16432
G1 X275.951 Y141.524 E6.19071
G1 X275.02 Y141.728 E6.22241
G1 X274.098 Y141.86 E6.25339
G1 X273.158 Y141.926 E6.28473
G1 X272.667 Y141.942 E6.30107
G1 X266.558 Y141.901 E6.50426
G1 X265.853 Y141.857 E6.52775
G1 X261.761 Y141.375 E6.66479
G1 X256.448 Y141.001 E6.84194
G1 X251.164 Y140.93 E7.0177
G1 X245.9 Y141.156 E7.19295
G1 X237.687 Y142.073 E7.46781
G1 X236.973 Y142.113 E7.4916
G1 X236.189 Y142.064 E7.51772
G1 X234.398 Y141.842 E7.57775
G1 X229.051 Y141.368 E7.75629
G1 X223.751 Y141.201 E7.93265
G1 X218.467 Y141.331 E8.10845
G1 X213.106 Y141.769 E8.28735
G1 X211.368 Y141.971 E8.34555
G1 X210.654 Y142.014 E8.36934
G1 X209.74 Y141.952 E8.39981
G1 X206.867 Y141.549 E8.4963
G1 X201.529 Y141.019 E8.67472
G1 X196.248 Y140.795 E8.85052
G1 X190.964 Y140.869 E9.02629
G1 X185.649 Y141.246 E9.20351
G1 X180.398 Y141.884 E9.37944
G1 X179.662 Y141.931 E9.40397
G1 X177.732 Y141.942 E9.46816
G1 X177.206 Y141.923 E9.48567
G1 X175.891 Y141.822 E9.52953
G1 X175.243 Y141.739 E9.55126
G1 X172.748 Y141.288 E9.63559
G1 X172.132 Y141.145 E9.65663
G1 X170.511 Y140.683 E9.71269
G1 X169.853 Y140.456 E9.73584
G1 X168.425 Y139.875 E9.78711
G1 X167.677 Y139.512 E9.81477
G1 X167.036 Y139.148 E9.83929
G1 X166.388 Y138.727 E9.86499
G1 X165.525 Y138.088 E9.9007
G1 X164.974 Y137.63 E9.92453
G1 X164.575 Y137.224 E9.94347
G1 X163.743 Y136.299 E9.98485
G1 X163.295 Y135.741 E10.00865
G1 X163.021 Y135.325 E10.02521
G1 X162.65 Y134.71 E10.0491
G1 X162.233 Y133.89 E10.0797
G1 X161.964 Y133.252 E10.10273
G1 X161.723 Y132.579 E10.12651
G1 X161.559 Y131.883 E10.15029
G1 X161.474 Y131.173 E10.17407
G1 X161.461 Y130.769 E10.18752
G1 X161.46 Y128.288 E10.27003
G1 X161.5 Y127.573 E10.29385
G1 X161.619 Y126.868 E10.31763
G1 X161.735 Y126.429 E10.33273
G1 X162.008 Y125.528 E10.36405
G1 X162.294 Y124.764 E10.39118
G1 X162.88 Y123.458 E10.43879
G1 X163.362 Y122.576 E10.47222
G1 X164.367 Y121.039 E10.5333
M204 S5000
M205 X30 Y30
G0 F3600 X164.702 Y121.257
M204 S500
M205 X20 Y20
G1 F1800 X165.15 Y120.658 E10.55818
G1 X166.083 Y119.559 E10.60613
G1 X166.392 Y119.222 E10.62133
G1 X168.323 Y117.271 E10.71263
G1 X171.965 Y113.317 E10.89143
G1 X175.347 Y109.201 E11.06862
G1 X178.481 Y104.914 E11.24524
G1 X181.392 Y100.418 E11.42338
G1 X185.078 Y94.162 E11.66489
G1 X187.22 Y90.363 E11.80995
G1 X187.389 Y90.083 E11.82083
G1 X189.958 Y86.056 E11.9797
G1 X190.325 Y85.542 E12.0007
G1 X190.687 Y85.088 E12.02002
G1 X191.149 Y84.573 E12.04303
G1 X191.668 Y84.114 E12.06607
G1 X192.236 Y83.718 E12.0891
G1 X192.612 Y83.504 E12.10349
G1 X194.233 Y82.662 E12.16425
G1 X198.66 Y80.346 E12.33042
G1 X199.291 Y80.061 E12.35345
G1 X199.854 Y79.876 E12.37316
G1 X200.466 Y79.708 E12.39427
G1 X201.156 Y79.562 E12.41773
G1 X206.288 Y78.785 E12.59036
G1 X206.917 Y78.723 E12.61138
G1 X208.296 Y78.661 E12.6573
G1 X209.197 Y78.688 E12.68728
G1 X215.058 Y79.309 E12.88331
G1 X220.349 Y79.576 E13.05951
G1 X225.678 Y79.543 E13.23676
G1 X230.969 Y79.21 E13.41308
G1 X238.005 Y78.329 E13.64893
G1 X238.696 Y78.282 E13.67196
G1 X239.638 Y78.348 E13.70337
G1 X246.599 Y79.389 E13.93747
G1 X247.277 Y79.531 E13.96051
G1 X247.923 Y79.745 E13.98314
G1 X248.536 Y79.988 E14.00508
G1 X249.009 Y80.2 E14.02232
G1 X254.128 Y82.76 E14.21268
G1 X254.712 Y83.094 E14.23506
G1 X255.18 Y83.398 E14.25362
G1 X255.738 Y83.808 E14.27665
G1 X256.167 Y84.2 E14.29598
G1 X256.831 Y84.868 E14.3273
G1 X257.29 Y85.387 E14.35035
G1 X257.557 Y85.753 E14.36541
G1 X264.352 Y95.873 E14.77084
G1 X264.594 Y96.264 E14.78614
G1 X267.294 Y101.037 E14.96853
G1 X270.159 Y105.497 E15.14484
G1 X273.293 Y109.821 E15.32246
G1 X276.625 Y113.908 E15.49784
G1 X281.209 Y118.871 E15.72255
G1 X281.463 Y119.165 E15.73547
G1 X283.032 Y121.102 E15.81838
G1 X283.596 Y121.931 E15.85173
G1 X284.37 Y123.303 E15.90412
G1 X284.679 Y123.935 E15.92752
G1 X285.054 Y124.831 E15.95983
G1 X285.345 Y125.712 E15.99068
G1 X285.729 Y127.271 E16.04409
G1 X285.855 Y127.952 E16.06712
G1 X285.903 Y128.643 E16.09016
G1 X285.848 Y129.514 E16.11919
G1 X285.529 Y131.862 E16.198
G1 X285.384 Y132.591 E16.22272
G1 X285.14 Y133.512 E16.25441
G1 X284.924 Y134.17 E16.27744
G1 X284.588 Y134.884 E16.30369
G1 X284.021 Y135.907 E16.34259
G1 X283.651 Y136.492 E16.36561
G1 X283.068 Y137.188 E16.39581
G1 X282.667 Y137.599 E16.41491
G1 X282.155 Y138.066 E16.43796
G1 X281.459 Y138.554 E16.46623
G1 X280.299 Y139.25 E16.51123
G1 X279.901 Y139.469 E16.52633
G1 X278.297 Y140.273 E16.58601
G1 X277.608 Y140.566 E16.61091
G1 X276.581 Y140.929 E16.64714
G1 X275.865 Y141.133 E16.6719
G1 X274.934 Y141.337 E16.7036
G1 X274.07 Y141.461 E16.73263
G1 X273.13 Y141.527 E16.76398
G1 X272.67 Y141.542 E16.77928
G1 X266.561 Y141.501 E16.98247
G1 X265.9 Y141.46 E17.0045
G1 X261.794 Y140.977 E17.14201
G1 X256.464 Y140.602 E17.31972
G1 X251.152 Y140.529 E17.49642
G1 X245.883 Y140.756 E17.67183
G1 X237.643 Y141.676 E17.9476
G1 X236.951 Y141.713 E17.97064
G1 X236.239 Y141.667 E17.99438
G1 X234.455 Y141.446 E18.05416
G1 X229.065 Y140.968 E18.23414
G1 X223.754 Y140.8 E18.41087
G1 X218.443 Y140.932 E18.58757
G1 X213.085 Y141.369 E18.76637
G1 X211.322 Y141.574 E18.8254
G1 X210.631 Y141.614 E18.84843
G1 X209.796 Y141.556 E18.87627
G1 X206.913 Y141.152 E18.97309
G1 X201.569 Y140.621 E19.15171
G1 X196.242 Y140.395 E19.32904
G1 X190.947 Y140.469 E19.50517
G1 X185.612 Y140.848 E19.68306
G1 X180.349 Y141.487 E19.8594
G1 X179.66 Y141.531 E19.88236
G1 X177.73 Y141.542 E19.94655
G1 X177.237 Y141.524 E19.96296
G1 X175.922 Y141.423 E20.00683
G1 X175.314 Y141.345 E20.02722
G1 X172.819 Y140.894 E20.11154
G1 X172.241 Y140.76 E20.13128
G1 X170.62 Y140.298 E20.18734
G1 X170.004 Y140.086 E20.20901
G1 X168.576 Y139.505 E20.26028
G1 X167.874 Y139.164 E20.28624
G1 X167.233 Y138.8 E20.31076
G1 X166.626 Y138.405 E20.33485
G1 X165.763 Y137.766 E20.37056
G1 X165.231 Y137.322 E20.39361
G1 X164.872 Y136.956 E20.41066
G1 X164.04 Y136.031 E20.45204
G1 X163.607 Y135.491 E20.47506
G1 X163.363 Y135.118 E20.48989
G1 X162.992 Y134.503 E20.51378
G1 X162.601 Y133.735 E20.54244
G1 X162.332 Y133.097 E20.56547
G1 X162.101 Y132.444 E20.58851
G1 X161.946 Y131.77 E20.61151
G1 X161.861 Y130.768 E20.64495
G1 X161.86 Y128.287 E20.72747
G1 X161.9 Y127.596 E20.75049
G1 X162.019 Y126.914 E20.77352
G1 X162.118 Y126.545 E20.78623
G1 X162.391 Y125.644 E20.81754
G1 X162.659 Y124.928 E20.84297
G1 X163.245 Y123.622 E20.89058
G1 X163.697 Y122.794 E20.92195
G1 X164.702 Y121.257 E20.98303
M204 S5000
M205 X30 Y30
G0 F3600 X165.037 Y121.476
M204 S500
M205 X20 Y20
G1 F1800 X165.455 Y120.917 E21.00625
G1 X166.388 Y119.818 E21.0542
G1 X166.677 Y119.503 E21.06842
G1 X168.604 Y117.555 E21.15955
G1 X172.268 Y113.578 E21.33941
G1 X175.664 Y109.446 E21.5173
G1 X178.801 Y105.154 E21.69411
G1 X181.735 Y100.622 E21.87368
G1 X185.46 Y94.301 E22.11771
G1 X187.569 Y90.56 E22.26054
G1 X187.726 Y90.298 E22.2707
G1 X190.295 Y86.271 E22.42958
G1 X190.637 Y85.792 E22.44915
G1 X190.999 Y85.338 E22.46846
G1 X191.447 Y84.841 E22.49072
G1 X191.951 Y84.4 E22.51299
G1 X192.503 Y84.023 E22.53523
G1 X192.797 Y83.859 E22.54642
G1 X194.418 Y83.017 E22.60718
G1 X198.846 Y80.7 E22.7734
G1 X199.456 Y80.426 E22.79564
G1 X199.96 Y80.262 E22.81327
G1 X200.572 Y80.094 E22.83438
G1 X201.216 Y79.957 E22.85627
G1 X206.348 Y79.18 E23.02891
G1 X206.934 Y79.123 E23.04849
G1 X208.313 Y79.061 E23.09441
G1 X209.155 Y79.086 E23.12242
G1 X215.014 Y79.707 E23.31839
G1 X220.349 Y79.976 E23.49605
G1 X225.689 Y79.943 E23.67367
G1 X230.995 Y79.609 E23.85049
G1 X238.055 Y78.725 E24.08714
G1 X238.723 Y78.682 E24.10941
G1 X239.579 Y78.744 E24.13795
G1 X246.54 Y79.785 E24.37205
G1 X247.195 Y79.923 E24.39431
G1 X247.776 Y80.117 E24.41469
G1 X248.389 Y80.36 E24.43662
G1 X248.83 Y80.557 E24.45268
G1 X253.949 Y83.117 E24.64305
G1 X254.495 Y83.43 E24.66398
G1 X254.963 Y83.734 E24.68254
G1 X255.501 Y84.131 E24.70478
G1 X255.884 Y84.482 E24.72206
G1 X256.548 Y85.15 E24.75338
G1 X256.99 Y85.652 E24.77563
G1 X257.225 Y85.976 E24.78894
G1 X264.02 Y96.096 E25.19437
G1 X264.245 Y96.461 E25.20863
G1 X266.939 Y101.224 E25.39063
G1 X269.836 Y105.735 E25.56895
G1 X272.975 Y110.063 E25.74677
G1 X276.327 Y114.175 E25.92322
G1 X280.915 Y119.143 E26.14814
G1 X281.153 Y119.417 E26.16021
G1 X282.722 Y121.354 E26.24312
G1 X283.247 Y122.127 E26.2742
G1 X284.021 Y123.499 E26.32659
G1 X284.31 Y124.089 E26.34844
G1 X284.685 Y124.985 E26.38075
G1 X284.956 Y125.808 E26.40957
G1 X285.34 Y127.367 E26.46297
G1 X285.461 Y128.025 E26.48522
G1 X285.503 Y128.692 E26.50745
G1 X285.452 Y129.46 E26.53305
G1 X285.133 Y131.808 E26.61186
G1 X284.997 Y132.488 E26.63493
G1 X284.753 Y133.409 E26.66662
G1 X284.544 Y134.044 E26.68885
G1 X284.238 Y134.69 E26.71263
G1 X283.671 Y135.713 E26.75153
G1 X283.312 Y136.277 E26.77377
G1 X282.781 Y136.909 E26.80122
G1 X282.38 Y137.32 E26.82032
G1 X281.885 Y137.77 E26.84257
G1 X281.253 Y138.211 E26.8682
G1 X280.093 Y138.907 E26.9132
G1 X279.721 Y139.111 E26.92731
G1 X278.117 Y139.915 E26.98698
G1 X277.474 Y140.189 E27.01023
G1 X276.447 Y140.552 E27.04646
G1 X275.78 Y140.742 E27.06953
G1 X274.849 Y140.946 E27.10123
G1 X274.042 Y141.062 E27.12834
G1 X273.102 Y141.128 E27.15968
G1 X272.672 Y141.142 E27.17399
G1 X266.563 Y141.101 E27.37718
G1 X265.946 Y141.063 E27.39774
G1 X261.825 Y140.578 E27.53576
G1 X256.48 Y140.202 E27.71397
G1 X251.158 Y140.129 E27.891
G1 X245.835 Y140.358 E28.06821
G1 X237.598 Y141.278 E28.34387
G1 X236.93 Y141.313 E28.36612
G1 X236.288 Y141.27 E28.38752
G1 X234.482 Y141.046 E28.44805
G1 X229.095 Y140.569 E28.62792
G1 X223.757 Y140.4 E28.80555
G1 X218.418 Y140.532 E28.98318
G1 X213.037 Y140.971 E29.16275
G1 X211.276 Y141.176 E29.22172
G1 X210.608 Y141.214 E29.24397
G1 X209.851 Y141.16 E29.26921
G1 X206.956 Y140.754 E29.36644
G1 X201.591 Y140.221 E29.54576
G1 X196.253 Y139.994 E29.72347
G1 X190.931 Y140.07 E29.9005
G1 X185.575 Y140.449 E30.07908
G1 X180.301 Y141.09 E30.25579
G1 X179.658 Y141.131 E30.27722
G1 X177.728 Y141.142 E30.34141
G1 X177.267 Y141.126 E30.35675
G1 X175.952 Y141.025 E30.40062
G1 X175.385 Y140.952 E30.41963
G1 X172.89 Y140.501 E30.50396
G1 X172.351 Y140.376 E30.52236
G1 X170.73 Y139.914 E30.57843
G1 X170.155 Y139.715 E30.59866
G1 X168.727 Y139.134 E30.64994
G1 X168.072 Y138.817 E30.67414
G1 X167.431 Y138.453 E30.69866
G1 X166.864 Y138.084 E30.72116
G1 X166.001 Y137.445 E30.75687
G1 X165.488 Y137.015 E30.77914
G1 X165.169 Y136.689 E30.79431
G1 X164.337 Y135.764 E30.83569
G1 X163.921 Y135.241 E30.85792
G1 X163.706 Y134.912 E30.87099
G1 X163.335 Y134.297 E30.89488
G1 X162.97 Y133.58 E30.92164
G1 X162.701 Y132.942 E30.94466
G1 X162.478 Y132.311 E30.96692
G1 X162.332 Y131.658 E30.98918
G1 X162.261 Y130.768 E31.01887
G1 X162.26 Y128.287 E31.10139
G1 X162.3 Y127.619 E31.12365
G1 X162.501 Y126.661 E31.15621
G1 X162.774 Y125.76 E31.18752
G1 X163.024 Y125.091 E31.21127
G1 X163.61 Y123.785 E31.25888
G1 X164.032 Y123.013 E31.28815
G1 X165.037 Y121.476 E31.34923
M204 S5000
M205 X30 Y30
G0 F3600 X165.372 Y121.695
M204 S500
M205 X20 Y20
G1 F1800 X165.76 Y121.176 E31.37078
G1 X166.693 Y120.077 E31.41873
G1 X166.961 Y119.784 E31.43193
G1 X168.9 Y117.825 E31.52361
G1 X172.572 Y113.838 E31.70389
G1 X175.98 Y109.691 E31.88242
G1 X179.136 Y105.373 E32.06031
G1 X182.073 Y100.838 E32.24001
G1 X185.783 Y94.542 E32.48307
G1 X187.917 Y90.756 E32.62762
G1 X188.063 Y90.513 E32.63705
G1 X190.632 Y86.486 E32.79592
G1 X190.95 Y86.041 E32.81411
G1 X191.312 Y85.587 E32.83343
G1 X191.745 Y85.109 E32.85488
G1 X192.233 Y84.688 E32.87631
G1 X192.981 Y84.214 E32.90577
G1 X194.602 Y83.372 E32.96652
G1 X194.602 Y83.373 E32.96655
G1 X199.031 Y81.055 E33.13282
G1 X199.62 Y80.792 E33.15427
G1 X200.065 Y80.648 E33.16983
G1 X200.677 Y80.48 E33.19094
G1 X201.276 Y80.353 E33.2113
G1 X206.408 Y79.576 E33.38394
G1 X206.952 Y79.522 E33.40212
G1 X208.331 Y79.46 E33.44803
G1 X209.113 Y79.484 E33.47406
G1 X214.988 Y80.107 E33.67055
G1 X220.331 Y80.376 E33.84849
G1 X225.698 Y80.343 E34.027
G1 X231.038 Y80.007 E34.20496
G1 X238.105 Y79.122 E34.44184
G1 X238.748 Y79.082 E34.46327
G1 X239.52 Y79.139 E34.48902
G1 X246.481 Y80.18 E34.72312
G1 X247.112 Y80.315 E34.74458
G1 X247.628 Y80.489 E34.76269
G1 X248.241 Y80.732 E34.78462
G1 X248.651 Y80.915 E34.79956
G1 X253.77 Y83.475 E34.98992
G1 X254.277 Y83.765 E35.00935
G1 X254.745 Y84.069 E35.02791
G1 X255.262 Y84.453 E35.04933
G1 X255.6 Y84.764 E35.0646
G1 X256.264 Y85.432 E35.09593
G1 X256.689 Y85.917 E35.11738
G1 X256.893 Y86.199 E35.12895
G1 X263.688 Y96.319 E35.53438
G1 X263.897 Y96.658 E35.54763
G1 X266.604 Y101.445 E35.73054
G1 X269.5 Y105.952 E35.90872
G1 X272.649 Y110.297 E36.0872
G1 X276.028 Y114.441 E36.26504
G1 X280.621 Y119.414 E36.4902
G1 X280.842 Y119.669 E36.50142
G1 X282.411 Y121.606 E36.58433
G1 X282.899 Y122.324 E36.6132
G1 X283.673 Y123.696 E36.6656
G1 X283.941 Y124.243 E36.68585
G1 X284.316 Y125.139 E36.71816
G1 X284.568 Y125.903 E36.74492
G1 X284.952 Y127.462 E36.79832
G1 X285.067 Y128.097 E36.81978
G1 X285.103 Y128.74 E36.8412
G1 X285.056 Y129.406 E36.86341
G1 X284.737 Y131.754 E36.94222
G1 X284.611 Y132.386 E36.96366
G1 X284.367 Y133.307 E36.99535
G1 X284.163 Y133.918 E37.01677
G1 X283.888 Y134.496 E37.03806
G1 X283.321 Y135.519 E37.07696
G1 X282.974 Y136.062 E37.09839
G1 X282.495 Y136.629 E37.12308
G1 X282.094 Y137.04 E37.14218
G1 X281.616 Y137.473 E37.16363
G1 X281.047 Y137.868 E37.18667
